X: 1
T:Tom Billy's
M:4/4
L:1/8
R:Reel
K:D
c|~d2ed BAFA|AFFE EDDE|~F2AF ~G2BG|ABde fgfe|
~d2ed BAFA|AFFE EDDE|~F2AF ~G2BG|ABde fdd:|
|:e|fa~a2 afdf|g2fg edBA|fa~a2 afdB|ABde fdde|
fa~a2 afdf|g2fg edBA|~F2AF ~G2BG|ABde fdd:|
